src/assets/svg/icons/typescript-icon.svg

<svg width="80px" height="80px" viewBox="0 0 101 101" fill="none" xmlns="http://www.w3.org/2000/svg">
<path d="M0.380615 0.485107H100.381V100.485H0.380615V0.485107Z" fill="#017ACB"/>
<path d="M48.3963 37.5164H53.1932V45.7976H40.2244V82.6413L39.8807 82.7351C39.4119 82.8601 33.24 82.8601 31.9119 82.7195L30.8494 82.6257V45.7976H17.8806V37.5164L21.99 37.4695C24.24 37.4382 30.0213 37.4382 34.8338 37.4695C39.6463 37.5007 45.74 37.5164 48.3963 37.5164ZM85.0057 78.7351C83.0995 80.7507 81.0526 81.8757 77.6463 82.7976C76.162 83.2038 75.912 83.2195 72.5682 83.2039C69.2245 83.1882 68.9588 83.1882 67.3338 82.7663C63.1307 81.6882 59.7401 79.5789 57.4276 76.5945C56.7713 75.7507 55.6932 74.0007 55.6932 73.782C55.6932 73.7195 55.8494 73.5789 56.0526 73.4851C56.2557 73.3914 56.6776 73.1257 57.0213 72.9226C57.3651 72.7195 57.9901 72.3445 58.4119 72.1257C58.8338 71.907 60.0526 71.1882 61.1151 70.5476C62.1776 69.907 63.1463 69.3914 63.2557 69.3914C63.3651 69.3914 63.5682 69.6101 63.7244 69.8757C64.6619 71.4539 66.8494 73.4695 68.3963 74.157C69.3495 74.5632 71.4588 75.0164 72.4745 75.0164C73.412 75.0164 75.1307 74.6101 76.0526 74.1882C77.037 73.7351 77.537 73.282 78.1307 72.3757C78.537 71.7351 78.5838 71.5632 78.5682 70.3445C78.5682 69.2195 78.5057 68.907 78.1932 68.3914C77.3182 66.9539 76.1307 66.2039 71.3182 64.0789C66.3494 61.8757 64.1151 60.5632 62.3026 58.7976C60.9588 57.4851 60.6932 57.1257 59.8494 55.4851C58.7557 53.3757 58.6151 52.6882 58.5994 49.5476C58.5838 47.3445 58.6307 46.6257 58.8651 45.8757C59.1932 44.7507 60.2557 42.5789 60.7401 42.032C61.7401 40.8601 62.0994 40.5007 62.8026 39.9226C64.9276 38.1726 68.2401 37.0164 71.412 36.907C71.7713 36.907 72.9588 36.9695 74.0682 37.0476C77.2557 37.3132 79.4276 38.0945 81.5213 39.7664C83.0995 41.0164 85.4901 43.9539 85.2557 44.3445C85.0995 44.5789 78.8651 48.7351 78.4588 48.8601C78.2088 48.9382 78.037 48.8445 77.6932 48.4382C75.5682 45.8914 74.7088 45.3445 72.6463 45.2195C71.1776 45.1257 70.3963 45.2976 69.412 45.9539C68.3807 46.6414 67.8807 47.6882 67.8807 49.1414C67.8963 51.2664 68.7088 52.2664 71.7088 53.7507C73.6463 54.7039 75.3026 55.4851 75.4276 55.4851C75.6151 55.4851 79.6307 57.4851 80.6776 58.1101C85.5526 60.9695 87.537 63.907 88.0526 68.9695C88.4276 72.782 87.3495 76.2663 85.0057 78.7351Z" fill="white"/>
</svg>

<svg xmlns="http://www.w3.org/2000/svg" width="80" height="80" viewBox="0 0 101 101" fill="none" xmlns:v="https://vecta.io/nano"><path d="M.381.485h100v100h-100v-100z" fill="#017acb"/><path d="M48.396 37.516h4.797v8.281H40.224v36.844l-.344.094c-.469.125-6.641.125-7.969-.016l-1.062-.094V45.798H17.881v-8.281l4.109-.047h12.844l13.563.047zm36.609 41.219c-1.906 2.016-3.953 3.141-7.359 4.063-1.484.406-1.734.422-5.078.406s-3.609-.016-5.234-.438c-4.203-1.078-7.594-3.187-9.906-6.172-.656-.844-1.734-2.594-1.734-2.812 0-.062.156-.203.359-.297s.625-.359.969-.562.969-.578 1.391-.797 1.641-.937 2.703-1.578 2.031-1.156 2.141-1.156.313.219.469.484c.938 1.578 3.125 3.594 4.672 4.281.953.406 3.063.859 4.078.859.938 0 2.656-.406 3.578-.828.984-.453 1.484-.906 2.078-1.812.406-.641.453-.812.438-2.031 0-1.125-.062-1.437-.375-1.953-.875-1.437-2.062-2.187-6.875-4.312-4.969-2.203-7.203-3.516-9.016-5.281-1.344-1.312-1.609-1.672-2.453-3.312-1.094-2.109-1.234-2.797-1.25-5.937-.016-2.203.031-2.922.266-3.672.328-1.125 1.391-3.297 1.875-3.844 1-1.172 1.359-1.531 2.063-2.109 2.125-1.75 5.438-2.906 8.609-3.016.359 0 1.547.063 2.656.141 3.188.266 5.359 1.047 7.453 2.719 1.578 1.25 3.969 4.188 3.734 4.578-.156.234-6.391 4.391-6.797 4.516-.25.078-.422-.016-.766-.422-2.125-2.547-2.984-3.094-5.047-3.219-1.469-.094-2.25.078-3.234.734-1.031.688-1.531 1.734-1.531 3.188.016 2.125.828 3.125 3.828 4.609 1.938.953 3.594 1.734 3.719 1.734.188 0 4.203 2 5.25 2.625 4.875 2.859 6.859 5.797 7.375 10.859.375 3.813-.703 7.297-3.047 9.766z" fill="#fff"/></svg>
